icons/4_Outdated/Windscribe v1.svg

<svg width="1024" height="1024" fill="none" xmlns="http://www.w3.org/2000/svg"><g clip-path="url(#a)"><path d="M512 1024c282.77 0 512-229.23 512-512S794.77 0 512 0 0 229.23 0 512s229.23 512 512 512Z" fill="#728DBE"/><path d="m765.1 498.1-64.7-155.4c-3.6-9-10.8-15.7-19.3-19.3l-155.4-64.7c-4.5-1.8-9.2-2.7-13.9-2.7-4.5 0-9.4.9-13.5 2.7l-155.4 64.2c-9 3.6-15.7 10.8-19.3 19.3l-64.7 155.4c-1.8 4.5-2.7 9.2-2.7 13.9 0 4.7.9 9.4 2.7 13.9l64.7 156.3c3.6 8.5 10.8 15.7 19.3 19.3l155 64.2c4.5 1.8 9 2.7 13.5 2.7 3.8 0 7.9-.7 11.5-2 .8-.2 1.6-.5 2.4-.7L681.2 701c8.5-3.6 15.7-10.3 19.3-19.3l64.7-156.3c3.5-8.9 3.5-18.8-.1-27.3Zm-168.4 80.4V400.2h42.7v221h-39.9c-11.2 0-22.5-4.5-30.1-12.6l-58.8-66-58.4 66c-8.1 8.1-18.9 12.6-30.1 12.6h-39.5v-221h42.7v178.3l85.8-92.5" fill="#fff"/></g><defs><clipPath id="a"><path fill="#fff" d="M0 0h1024v1024H0z"/></clipPath></defs></svg>

<svg width="1024" height="1024" viewBox="0 0 1024 1024" fill="none" xmlns="http://www.w3.org/2000/svg">
<g clip-path="url(#clip0_3_728)">
<path d="M512 1024C794.77 1024 1024 794.77 1024 512C1024 229.23 794.77 0 512 0C229.23 0 0 229.23 0 512C0 794.77 229.23 1024 512 1024Z" fill="#728DBE"/>
<path d="M765.1 498.1L700.4 342.7C696.8 333.7 689.6 327 681.1 323.4L525.7 258.7C521.2 256.9 516.5 256 511.8 256C507.3 256 502.4 256.9 498.3 258.7L342.9 322.9C333.9 326.5 327.2 333.7 323.6 342.2L258.9 497.6C257.1 502.1 256.2 506.8 256.2 511.5C256.2 516.2 257.1 520.9 258.9 525.4L323.6 681.7C327.2 690.2 334.4 697.4 342.9 701L497.9 765.2C502.4 767 506.9 767.9 511.4 767.9C515.2 767.9 519.3 767.2 522.9 765.9C523.7 765.7 524.5 765.4 525.3 765.2L681.2 701C689.7 697.4 696.9 690.7 700.5 681.7L765.2 525.4C768.7 516.5 768.7 506.6 765.1 498.1ZM596.7 578.5V400.2H639.4V621.2H599.5C588.3 621.2 577 616.7 569.4 608.6L510.6 542.6L452.2 608.6C444.1 616.7 433.3 621.2 422.1 621.2H382.6V400.2H425.3V578.5L511.1 486" fill="white"/>
</g>
<defs>
<clipPath id="clip0_3_728">
<rect width="1024" height="1024" fill="white"/>
</clipPath>
</defs>
</svg>
